X:1011
T:Folia
T:Foliatemat i svensk folkton
C:anon.
O:Sweden
B:Olle Adolfsson, Folia - visor, dikter
R:Folia
F:http://abc.musicaviva.com/tunes/sweden/adolfsson-folia/adolfsson-folia-1.abc
%Posted May 29th 2000 at abcusers by Sigfrid Lundberg
M:3/4
L:1/8
K:Gm
|: G2 G3 A | ^F4 F2   | G2 G3 B | A4 A2 | B2 B3 c |
[1 A4 A2   | B2 A2 G2 |^F4 F2 :|[2 A4 B2| B2 A2 ^F| G6 |]
W:
W:
W:  From Musica Viva - http://www.musicaviva.com
W:  the Internet center for free sheet music downloads.
